X:1
T:Title
%%score { ( 1 3 ) | ( 2 4 ) }
L:1/8
Q:1/4=100
M:4/4
K:Ab
V:1 treble nm="Grand Piano"
V:3 treble 
V:2 bass 
V:4 bass 
V:1
 [CE]2 [A,C]>[CE] [CA]3 [CA] | [DA]2 [DG]2 z2 [DE]2 | [CE]2 [CA]2 [Fd]3 [Ec] | %3
w: Kinkel * * * *|||
 [Ec]2 [EB]2 z2 [CA]2 | [CE]3 [DF] [E_G]2 [EG]2 | [EG]2 [DF]2 z2 [=DF]2 | [=DF]3 [EG] [FA]2 [FA]2 | %7
w: ||||
[M:3/4] [FA]2 [EG]2 z2 | [DE]2 [CE]4 | [CA]2 [Ec]4 | [EA]2 [FA]4 | F2 E4 | A2 d4 | c2 [Ec]2 B2 | %14
w: |||||||
 [B,FA]2 [CEA]4- | [CEA]2 [DEG]4- | [DEG]2 [CEA]4- |[M:2/4] [CEA]4- | [CEA]2 z2 |] %19
w: |||||
V:2
 [A,,E,]2 [A,,E,]>[A,,E,] [A,,E,]3 [A,,E,] | [B,,E,]2 [B,,E,]2 z2 [B,,E,]2 | %2
 [A,,E,]2 [A,,E,]2 [A,,A,]3 [A,,A,] | [E,A,]2 [E,G,]2 z2 [A,,A,]2 | %4
 [A,,A,]3 [A,,A,] [A,,A,]2 [C,A,]2 | [D,A,]2 [D,A,]2 z2 [B,,A,]2 | %6
 [B,,B,]3 [B,,B,] [B,,B,]2 [B,,B,]2 |[M:3/4] [E,B,]2 [E,B,]2 z2 | [E,A,]2 [A,,A,]4 | %9
 [A,,A,]2 [A,,A,]4 | [C,A,]2 [D,A,]4 | [F,A,D]2[K:treble] [A,C]4 | [CE]2 [B,EG]4 | %13
 [A,EA]2[K:bass] z2 D2 | D,2 E,4- | E,2 E,4- | E,2 A,,4- |[M:2/4] A,,4- | A,,2 z2 |] %19
V:3
 x8 | x8 | x8 | x8 | x8 | x8 | x8 |[M:3/4] x6 | x6 | x6 | x6 | x6 | x6 | z2 F4 | x6 | x6 | x6 | %17
[M:2/4] x4 | x4 |] %19
V:4
 x8 | x8 | x8 | x8 | x8 | x8 | x8 |[M:3/4] x6 | x6 | x6 | x6 | x2[K:treble] x4 | x6 | %13
 z2[K:bass] D,4 | x6 | x6 | x6 |[M:2/4] x4 | x4 |] %19

